X:603
T:Reel 603
M:4/4
K:Amin
L:1/8
A,B,|CA,B,G, E,A,A,B,|CG,B,G, DG,E,G,||CB,A,G,  (3E,^F,^G, A,B,|CB,CD E|2EA, (3B,A,G, A,2E2|B,A,G,A, B,2CB,|CEDE B,2A,B,| (3CDE EC DB,G,B,|CDCE D2CD|EDE^F G2ED|EA,A,B, C2CD|EDE^F G2ED|CDB,C A,G,A,B,|
